svgs/light/inboxes.svg

<svg xmlns="http://www.w3.org/2000/svg" viewBox="0 0 512 512"><!--! Font Awesome Pro 6.3.0 by @fontawesome - https://fontawesome.com License - https://fontawesome.com/license (Commercial License) Copyright 2023 Fonticons, Inc. --><path d="M507.7 180.9l-61.99-160.8C440.8 7.969 429.1 0 416 0H96c-13.09 0-24.84 7.969-29.72 20.12L4.287 180.9C1.453 188.2 0 196 0 203.9V271.1c0 26.51 21.49 48 48 48h416c26.51 0 48-21.49 48-48V203.9C512 196 510.5 188.2 507.7 180.9zM96 32h320l-.1387-.3613L465.4 160H384c-6.062 0-11.59 3.438-14.31 8.844L342.1 224H169.9L142.3 168.8C139.6 163.4 134.1 160 128 160H46.64L96 32zM480 272C480 280.8 472.8 288 464 288h-416C39.18 288 32 280.8 32 272V203.9c0-3.955 .7207-7.828 2.145-11.52L34.3 192H118.1l27.58 55.16C148.4 252.6 153.9 256 160 256h192c6.062 0 11.59-3.438 14.31-8.844L393.9 192h83.81l.1543 .3984C479.3 196.1 480 199.1 480 203.9V272zM464 352h-80c-6.061 0-11.6 3.424-14.31 8.844L342.1 416H169.9l-27.58-55.15C139.6 355.4 134.1 352 128 352H48C21.49 352 0 373.5 0 400v64C0 490.5 21.49 512 48 512h416c26.51 0 48-21.49 48-48v-64C512 373.5 490.5 352 464 352zM480 464c0 8.836-7.162 16-16 16h-416C39.16 480 32 472.8 32 464v-64C32 391.2 39.16 384 48 384h70.11l27.58 55.16C148.4 444.6 153.9 448 159.1 448H352c6.062 0 11.6-3.424 14.31-8.846L393.9 384H464c8.838 0 16 7.164 16 16V464z"/></svg>

<svg xmlns="http://www.w3.org/2000/svg" viewBox="0 0 512 512"><!-- Font Awesome Pro 6.0.0-alpha2 by @fontawesome - https://fontawesome.com License - https://fontawesome.com/license (Commercial License) --><path d="M507.713 180.883L445.719 20.125C440.844 7.969 429.094 0 416 0H96C82.906 0 71.156 7.969 66.281 20.125L4.287 180.883C1.453 188.23 0 196.039 0 203.914V272C0 298.508 21.49 320 48 320H464C490.51 320 512 298.508 512 272V203.914C512 196.039 510.547 188.23 507.713 180.883ZM96 32H416L415.861 31.639L465.363 160H384C377.938 160 372.406 163.438 369.688 168.844L342.109 224H169.891L142.312 168.844C139.594 163.438 134.062 160 128 160H46.639L96 32ZM480 272C480 280.822 472.822 288 464 288H48C39.178 288 32 280.822 32 272V203.914C32 199.959 32.721 196.086 34.145 192.396L34.297 192H118.109L145.688 247.156C148.406 252.562 153.938 256 160 256H352C358.062 256 363.594 252.562 366.312 247.156L393.891 192H477.703L477.857 192.398C479.279 196.086 480 199.959 480 203.914V272ZM464 352H383.998C377.938 352 372.398 355.424 369.688 360.844L342.109 416H169.891L142.314 360.846C139.604 355.424 134.062 352 128 352H48C21.49 352 0 373.49 0 400V464C0 490.51 21.49 512 48 512H464C490.51 512 512 490.51 512 464V400C512 373.49 490.51 352 464 352ZM480 464C480 472.836 472.838 480 464 480H48C39.164 480 32 472.836 32 464V400C32 391.164 39.164 384 48 384H118.109L145.688 439.156C148.398 444.576 153.938 448 159.998 448H352C358.062 448 363.604 444.576 366.314 439.154L393.891 384H464C472.838 384 480 391.164 480 400V464Z"/></svg>
